icons/linear-ele-arrow-chrvron-right-double.svg

<svg xmlns="http://www.w3.org/2000/svg" width="32px" height="32px" viewBox="0 0 32 32" version="1.1">
    <title>linear-ele-arrow-chrvron-right-double</title>
    <g id="linear-ele-arrow-chrvron-right-double" stroke-width="1" fill-rule="evenodd">
        <path d="M16.7071068,5.29289322 L26.7071068,15.2928932 C27.0976311,15.6834175 27.0976311,16.3165825 26.7071068,16.7071068 L16.7071068,26.7071068 C16.3165825,27.0976311 15.6834175,27.0976311 15.2928932,26.7071068 C14.9023689,26.3165825 14.9023689,25.6834175 15.2928932,25.2928932 L24.585,16 L15.2928932,6.70710678 C14.9324093,6.34662282 14.9046797,5.77939176 15.2097046,5.38710056 L15.2928932,5.29289322 C15.6834175,4.90236893 16.3165825,4.90236893 16.7071068,5.29289322 Z M8.70710678,5.29289322 L18.7071068,15.2928932 C19.0976311,15.6834175 19.0976311,16.3165825 18.7071068,16.7071068 L8.70710678,26.7071068 C8.31658249,27.0976311 7.68341751,27.0976311 7.29289322,26.7071068 C6.90236893,26.3165825 6.90236893,25.6834175 7.29289322,25.2928932 L16.585,16 L7.29289322,6.70710678 C6.93240926,6.34662282 6.90467972,5.77939176 7.20970461,5.38710056 L7.29289322,5.29289322 C7.68341751,4.90236893 8.31658249,4.90236893 8.70710678,5.29289322 Z" id="&#24418;&#29366;" fill-rule="nonzero" />
    </g>
</svg>

<svg xmlns="http://www.w3.org/2000/svg" viewBox="0 0 32 32"><path fill="currentColor" d="m16.707 5.293 10 10a1 1 0 0 1 0 1.414l-10 10a1 1 0 0 1-1.414-1.414L24.585 16l-9.292-9.293a1 1 0 0 1-.083-1.32l.083-.094a1 1 0 0 1 1.414 0m-8 0 10 10a1 1 0 0 1 0 1.414l-10 10a1 1 0 1 1-1.414-1.414L16.585 16 7.293 6.707a1 1 0 0 1-.083-1.32l.083-.094a1 1 0 0 1 1.414 0"/></svg>
